packages/core/src/svgs/tokens/branded/TFUEL.svg

<svg width="24" height="24" viewBox="0 0 24 24" fill="none" xmlns="http://www.w3.org/2000/svg">
<path fill-rule="evenodd" clip-rule="evenodd" d="M12.4325 22C9.88255 21.5 4.82758 19.23 4.99759 14.18H5.00759C4.95759 13.18 5.41759 10.665 7.66258 8.62999C10.4725 6.08499 11.1076 5.235 10.9926 2C12.0175 2.6 14.0676 4.405 14.1175 6.8C14.1076 7.19499 14.0075 8.22499 13.6875 9.17499C13.2826 10.365 13.9526 11.365 14.9525 11.415C15.9625 11.46 16.7025 10.76 16.7675 9.52498C17.5676 10.325 19.1376 12.485 18.9976 14.745C18.8176 17.5699 17.4126 18.5799 16.5376 19.115C16.2681 19.2807 15.91 19.4167 15.5132 19.5673C14.4379 19.9756 13.0791 20.4915 12.4325 22ZM16.4625 4.26999V4.99C16.4575 5.11 16.3475 5.45499 15.9625 5.84499C15.5825 6.24 15.4876 6.84499 15.4876 7.09499C15.4858 7.45855 15.599 7.81337 15.8108 8.10879C16.0228 8.40422 16.3227 8.62512 16.6675 8.73998C16.7964 8.39227 17.0285 8.09222 17.3325 7.87999C17.7326 7.65999 17.7426 7.16999 17.7326 6.93C17.6 5.93168 17.1555 5.00074 16.4625 4.26999ZM7.9978 12.5V14.5H10.9978V18H12.9978V14.5H15.9977V12.5H7.9978Z" fill="url(#paint0_linear_364_12137)"/>
<defs>
<linearGradient id="paint0_linear_364_12137" x1="15.4881" y1="3.41429" x2="4.9355" y2="17.8578" gradientUnits="userSpaceOnUse">
<stop stop-color="#EE6833"/>
<stop offset="1" stop-color="#F2A23E"/>
</linearGradient>
</defs>
</svg>

<svg xmlns="http://www.w3.org/2000/svg" width="24" height="24" fill="none" viewBox="0 0 24 24">
    <path fill="url(#TFUEL__a)" fill-rule="evenodd" d="M12.433 22c-2.55-.5-7.605-2.77-7.435-7.82h.01c-.05-1 .41-3.515 2.655-5.55 2.81-2.545 3.445-3.395 3.33-6.63 1.024.6 3.075 2.405 3.124 4.8a9 9 0 0 1-.43 2.375c-.404 1.19.266 2.19 1.266 2.24 1.01.045 1.75-.655 1.814-1.89.8.8 2.37 2.96 2.23 5.22-.18 2.825-1.584 3.835-2.46 4.37-.269.166-.627.302-1.024.452-1.075.409-2.434.924-3.08 2.433m4.03-17.73v.72c-.006.12-.116.465-.5.855-.38.395-.475 1-.475 1.25a1.725 1.725 0 0 0 1.18 1.645 1.8 1.8 0 0 1 .665-.86c.4-.22.41-.71.4-.95a4.78 4.78 0 0 0-1.27-2.66M7.997 12.5v2h3V18h2v-3.5h3v-2z" clip-rule="evenodd"/>
    <defs>
        <linearGradient id="TFUEL__a" x1="15.488" x2="4.936" y1="3.414" y2="17.858" gradientUnits="userSpaceOnUse">
            <stop stop-color="#EE6833"/>
            <stop offset="1" stop-color="#F2A23E"/>
        </linearGradient>
    </defs>
</svg>
